assets/img/braze_icons/refresh-ccw-02.svg

<svg fill="none" height="24" viewBox="0 0 24 24" width="24" xmlns="http://www.w3.org/2000/svg"><g fill="#801ed7"><path d="m19.0711 4.92893c-3.9052-3.90524-10.23689-3.90524-14.14213 0-.79811.79811-1.4293 1.46629-1.92897 2.02471v-2.95364c0-.55228-.44772-1-1-1s-1 .44772-1 1v6c0 .5523.44772 1 1 1h6c.55228 0 1-.4477 1-1 0-.55228-.44772-1-1-1h-4.12567c.51219-.61719 1.29075-1.47875 2.46885-2.65685 3.1242-3.1242 8.18952-3.1242 11.31372 0 1.108 1.10799 1.8218 2.45742 2.1441 3.87815.1222.5386.6579.8761 1.1965.7539s.8761-.6579.7539-1.19647c-.4034-1.77787-1.2977-3.46724-2.6803-4.8498z"/><path d="m4.19906 13.7787c-.1222-.5386-.65788-.8761-1.19648-.7539-.53859.1222-.87615.6578-.75394 1.1964.40338 1.7779 1.29776 3.4673 2.68032 4.8498 3.90524 3.9053 10.23684 3.9053 14.14214 0 .7978-.7977 1.429-1.4659 1.9289-2.0246v2.9536c0 .5523.4477 1 1 1s1-.4477 1-1v-6c0-.5523-.4477-1-1-1h-6c-.5523 0-1 .4477-1 1s.4477 1 1 1h4.1257c-.5115.6164-1.2899 1.4779-2.4688 2.6568-3.1242 3.1242-8.18954 3.1242-11.31373 0-1.10799-1.108-1.82176-2.4574-2.14411-3.8781z"/></g></svg>

<svg width="24" height="24" viewBox="0 0 24 24" fill="none" xmlns="http://www.w3.org/2000/svg">
<path d="M19.0711 4.92893C15.1659 1.02369 8.83421 1.02369 4.92897 4.92893C4.13086 5.72704 3.49967 6.39522 3 6.95364V4C3 3.44772 2.55228 3 2 3C1.44772 3 1 3.44772 1 4V10C1 10.5523 1.44772 11 2 11H8C8.55228 11 9 10.5523 9 10C9 9.44772 8.55228 9 8 9H3.87433C4.38652 8.38281 5.16508 7.52125 6.34318 6.34315C9.46738 3.21895 14.5327 3.21895 17.6569 6.34315C18.7649 7.45114 19.4787 8.80057 19.801 10.2213C19.9232 10.7599 20.4589 11.0974 20.9975 10.9752C21.5361 10.853 21.8736 10.3173 21.7514 9.77873C21.348 8.00086 20.4537 6.31149 19.0711 4.92893Z" fill="#801ED7"/>
<path d="M4.19906 13.7787C4.07686 13.2401 3.54118 12.9026 3.00258 13.0248C2.46399 13.147 2.12643 13.6826 2.24864 14.2212C2.65202 15.9991 3.5464 17.6885 4.92896 19.071C8.8342 22.9763 15.1658 22.9763 19.0711 19.071C19.8689 18.2733 20.5001 17.6051 21 17.0464V20C21 20.5523 21.4477 21 22 21C22.5523 21 23 20.5523 23 20V14C23 13.4477 22.5523 13 22 13H16C15.4477 13 15 13.4477 15 14C15 14.5523 15.4477 15 16 15H20.1257C19.6142 15.6164 18.8358 16.4779 17.6569 17.6568C14.5327 20.781 9.46736 20.781 6.34317 17.6568C5.23518 16.5488 4.52141 15.1994 4.19906 13.7787Z" fill="#801ED7"/>
</svg>
